contributed-vectors/fruit_ninja.svg

<?xml version="1.0" encoding="UTF-8" standalone="no"?>
<svg
   xmlns:dc="http://purl.org/dc/elements/1.1/"
   xmlns:cc="http://creativecommons.org/ns#"
   xmlns:rdf="http://www.w3.org/1999/02/22-rdf-syntax-ns#"
   xmlns:svg="http://www.w3.org/2000/svg"
   xmlns="http://www.w3.org/2000/svg"
   xmlns:sodipodi="http://sodipodi.sourceforge.net/DTD/sodipodi-0.dtd"
   xmlns:inkscape="http://www.inkscape.org/namespaces/inkscape"
   width="192"
   height="192"
   version="1.1"
   viewBox="0 0 192 192"
   id="svg14"
   sodipodi:docname="fruit_ninja.svg"
   inkscape:version="0.92.5 (2060ec1f9f, 2020-04-08)">
  <metadata
     id="metadata20">
    <rdf:RDF>
      <cc:Work
         rdf:about="">
        <dc:format>image/svg+xml</dc:format>
        <dc:type
           rdf:resource="http://purl.org/dc/dcmitype/StillImage" />
        <dc:title></dc:title>
      </cc:Work>
    </rdf:RDF>
  </metadata>
  <defs
     id="defs18" />
  <sodipodi:namedview
     pagecolor="#ffffff"
     bordercolor="#666666"
     borderopacity="1"
     objecttolerance="10"
     gridtolerance="10"
     guidetolerance="10"
     inkscape:pageopacity="0"
     inkscape:pageshadow="2"
     inkscape:window-width="1280"
     inkscape:window-height="745"
     id="namedview16"
     showgrid="true"
     inkscape:zoom="2.3828026"
     inkscape:cx="95.220412"
     inkscape:cy="73.633442"
     inkscape:window-x="-12"
     inkscape:window-y="-2"
     inkscape:window-maximized="1"
     inkscape:current-layer="svg14"
     inkscape:document-rotation="0"
     inkscape:snap-global="false"
     inkscape:lockguides="true">
    <inkscape:grid
       type="xygrid"
       id="grid819"
       spacingx="4"
       spacingy="4" />
  </sodipodi:namedview>
  <path
     style="fill:#ffffff"
     d="m 36,164 c 0,0 64,-96 112,-128 l 28,-4 -16,24 C 92,96 36,164 36,164 Z"
     id="path828"
     inkscape:connector-curvature="0"
     sodipodi:nodetypes="ccccc" />
  <path
     style="fill:#d8d8d8"
     d="m 36,164 c 0,0 64,-84 116,-120 L 176,32 160,56 C 92,100 36,164 36,164 Z"
     id="path830"
     inkscape:connector-curvature="0"
     sodipodi:nodetypes="ccccc" />
  <path
     style="fill:#98dc9a"
     d="m 40,116 c 8,0 24,-8 48,-36 24,-28 24,-36 24,-44 0,-4 -44,-48 -84,-8 -40,40 8,88 12,88 z"
     id="path832"
     inkscape:connector-curvature="0"
     sodipodi:nodetypes="ssszs" />
  <path
     style="fill:#98dc9a;"
     d="m 76,148 92,-64 c 0,0 36,56 -8,88 -44,32 -84,-24 -84,-24 z"
     id="path834"
     inkscape:connector-curvature="0"
     sodipodi:nodetypes="cczc" />
  <path
     style="fill:#71a372"
     d="M 162.16016 88.0625 L 79.181641 145.78711 L 103.56641 139.47461 C 103.56641 139.47461 114.99177 155.65745 121.9668 162.62109 C 128.26672 168.91073 141.65023 178.47147 143.94336 180.09766 C 147.08637 179.17584 150.27511 177.86673 153.49609 176.11719 C 151.39729 174.23106 140.19174 163.96792 133.53906 153.42188 C 127.12384 143.25225 119.88867 124.33984 119.88867 124.33984 L 159.6543 102.67773 C 159.6543 102.67773 168.0359 112.72237 172.41406 125.52734 C 175.00441 133.10342 177.2485 143.81638 178.29688 149.16406 C 178.94453 147.52927 179.49362 145.88248 179.95117 144.22852 C 179.08312 138.36295 177.59068 129.03012 175.97461 123.15234 C 173.78115 115.17454 165.80493 96.459544 162.16016 88.0625 z M 78.503906 146.25781 L 76 148 C 76 148 81.549179 155.75987 90.777344 163.85156 C 82.748177 153.08057 78.882354 146.87383 78.503906 146.25781 z "
     id="path838" />
  <path
     style="fill:#e0f4e0"
     d="M 168 84 L 162.66797 87.708984 C 167.51556 94.613888 176.08543 108.11916 180.72266 123.44922 C 181.01051 123.40544 181.28461 123.33956 181.55273 123.26367 C 179.5064 101.91287 168 84 168 84 z M 148.37695 109.79883 L 135.91406 121.07617 C 135.91406 121.07617 146.5245 137.56546 154.60938 154.01562 C 156.8605 158.59596 159.8038 166.71316 161.31445 171.00391 C 165.36429 167.89917 168.69894 164.58535 171.41016 161.12695 C 170.43568 157.38174 166.95289 144.04666 164.40234 135.61719 C 160.41966 122.45459 148.37695 109.79883 148.37695 109.79883 z M 81.904297 144.22266 C 81.904297 144.22266 90.146456 158.80525 101.19336 169.15039 C 104.90712 172.62823 109.96107 175.95493 114.36133 178.56836 C 120.32318 180.81516 126.76145 182.11813 133.51367 181.83008 C 128.90555 179.59049 120.58126 175.33438 116.32812 171.82031 C 107.02295 164.13207 92.884766 144.22266 92.884766 144.22266 L 81.904297 144.22266 z "
     id="path886" />
  <path
     style="fill:#fdf5d9"
     d="m 76,148 c -4,-12 17.366246,-33.28823 32,-44 17.01139,-12.452185 52,-24 60,-20 8,4 -20.51153,33.08129 -36,44 -16.20052,11.42068 -53.171573,28.48528 -56,20 z"
     id="path836"
     inkscape:connector-curvature="0"
     sodipodi:nodetypes="sssss" />
  <path
     style="fill:#ffb0ac;stroke-width:0.87988019"
     d="m 81.579458,144.24491 c -3.519521,-10.55856 15.725348,-28.54776 28.601292,-37.97283 14.96799,-10.956435 45.30865,-21.859015 52.34769,-18.339494 7.03904,3.51952 -19.53146,27.327034 -33.15946,36.934194 -14.25451,10.04883 -45.300844,26.84417 -47.789522,19.37813 z"
     id="path836-6"
     inkscape:connector-curvature="0"
     sodipodi:nodetypes="sssss" />
  <path
     style="fill:#71a372;"
     d="M 60.167969 14.263672 C 53.48179 14.206571 47.365361 15.494296 43.011719 16.740234 C 42.012151 17.262473 41.011024 17.836592 40.009766 18.445312 C 46.776557 17.560606 61.997296 16.447909 73.001953 22.255859 C 85.057933 28.618668 102.24214 45.458903 108.41016 51.689453 C 110.63483 47.185891 111.49558 43.819039 111.80664 40.910156 C 102.52788 34.008573 87.846594 23.478413 78.046875 18.398438 C 72.234305 15.385319 65.99636 14.313447 60.167969 14.263672 z M 24.435547 31.855469 C 24.410937 31.884315 24.387806 31.912554 24.363281 31.941406 C 24.503927 32.930531 26.673333 46.955761 39.171875 64.988281 C 46.791828 75.982121 63.679704 92.202223 70.361328 98.470703 C 74.700723 94.482999 79.424399 89.684545 84.541016 83.939453 C 78.398167 79.797477 67.326732 72.201303 61.130859 67.066406 C 48.126354 56.288782 24.739817 32.169351 24.435547 31.855469 z M 12.191406 63.404297 C 12.120248 91.775098 37.158433 116 40 116 C 41.208838 116 42.623106 115.78954 44.197266 115.38281 C 22.788618 93.18104 14.690876 75.744295 12.191406 63.404297 z "
     id="path909" />
  <path
     style="fill:#ff837d;stroke-width:0.58460462"
     d="m 95.286852,134.99477 c -2.338418,-7.01525 10.448138,-18.96752 19.003098,-25.22967 9.94494,-7.27961 30.1037,-14.523434 34.78053,-12.185015 4.67684,2.338418 -12.97697,18.156455 -22.0316,24.539595 -9.4709,6.67658 -30.098515,17.83564 -31.752028,12.87509 z"
     id="path836-6-1"
     inkscape:connector-curvature="0"
     sodipodi:nodetypes="sssss" />
  <path
     style="fill:#e0f4e0"
     d="M 67.287109 11.398438 C 77.476407 15.777591 100.19471 26.268466 111.97656 37.501953 C 111.98222 37.00302 112 36.494217 112 36 C 112 33.323815 92.302862 12.748884 67.287109 11.398438 z M 35.017578 24.037109 C 55.038651 37.643924 87.088887 67.253234 93.582031 73.298828 C 97.876382 68.008796 101.19257 63.534328 103.71289 59.722656 C 95.293763 52.417454 60.829181 23.95197 35.017578 24.037109 z M 19.289062 42.138672 C 19.289062 42.138672 11.374553 57.518185 19.882812 76.5625 C 25.32666 88.747641 43.802838 106.21114 50.970703 112.71289 C 53.771644 111.28899 56.912888 109.34685 60.408203 106.76562 C 58.352164 104.92486 36.253163 85.029559 28.488281 72.705078 C 21.1616 61.076112 19.289062 42.138672 19.289062 42.138672 z "
     id="path911" />
  <ellipse
     style="opacity:1;vector-effect:none;fill:#4a4a4a;fill-opacity:1;stroke-width:0.92733908;paint-order:stroke fill markers"
     id="path945"
     cx="32.763042"
     cy="169.69598"
     rx="3.4868622"
     ry="1.9289026"
     transform="rotate(-31.410621)" />
  <ellipse
     style="opacity:1;vector-effect:none;fill:#4a4a4a;fill-opacity:1;stroke-width:0.96806508;paint-order:stroke fill markers"
     id="path945-6"
     cx="-113.36106"
     cy="190.40846"
     rx="4.1577706"
     ry="1.7628549"
     transform="matrix(0.76818463,-0.64022837,0.94788651,0.31860817,0,0)" />
  <ellipse
     style="opacity:1;vector-effect:none;fill:#4a4a4a;fill-opacity:1;stroke-width:0.7911886;paint-order:stroke fill markers"
     id="path945-6-2"
     cx="150.62192"
     cy="-169.65759"
     rx="3.433558"
     ry="1.4258822"
     transform="matrix(0.9606939,-0.27760987,0.27962429,-0.9601095,0,0)" />
  <ellipse
     style="opacity:1;vector-effect:none;fill:#4a4a4a;fill-opacity:1;stroke-width:1.00506997;paint-order:stroke fill markers"
     id="path977"
     cx="183.32051"
     cy="74.379936"
     rx="1.8102278"
     ry="2.7365978"
     transform="matrix(0.9559852,0.29341489,-0.7403373,0.67223558,0,0)" />
  <ellipse
     style="opacity:1;vector-effect:none;fill:#4a4a4a;fill-opacity:1;stroke-width:1.0621568;paint-order:stroke fill markers"
     id="path979"
     cx="50.492027"
     cy="156.98932"
     rx="4.4101019"
     ry="1.5966713"
     transform="matrix(0.86375393,-0.50391383,0.62905655,0.77735954,0,0)" />
  <ellipse
     style="opacity:1;vector-effect:none;fill:#4a4a4a;fill-opacity:1;stroke-width:1.13122916;paint-order:stroke fill markers"
     id="path979-9"
     cx="63.991169"
     cy="155.76112"
     rx="4.7723875"
     ry="1.6736027"
     transform="matrix(0.92614487,-0.37716796,0.54352908,0.83939034,0,0)" />
</svg>

<svg xmlns="http://www.w3.org/2000/svg" width="192" height="192"><path d="M36 164s64-96 112-128l28-4-16 24C92 96 36 164 36 164Z" style="fill:#fff"/><path d="M36 164s64-84 116-120l24-12-16 24C92 100 36 164 36 164Z" style="fill:#d8d8d8"/><path d="M40 116c8 0 24-8 48-36s24-36 24-44c0-4-44-48-84-8s8 88 12 88zM76 148l92-64s36 56-8 88-84-24-84-24z" style="fill:#98dc9a"/><path d="m162.16 88.063-82.978 57.724 24.384-6.312s11.426 16.182 18.4 23.146c6.3 6.29 19.684 15.85 21.977 17.477 3.143-.922 6.332-2.231 9.553-3.98-2.099-1.887-13.304-12.15-19.957-22.696-6.415-10.17-13.65-29.082-13.65-29.082l39.765-21.662s8.382 10.044 12.76 22.85c2.59 7.575 4.835 18.288 5.883 23.636a48.505 48.505 0 0 0 1.654-4.935c-.868-5.866-2.36-15.199-3.976-21.077-2.194-7.977-10.17-26.692-13.815-35.09zm-83.656 58.195L76 148s5.55 7.76 14.777 15.852c-8.029-10.771-11.895-16.978-12.273-17.594z" style="fill:#71a372"/><path d="m168 84-5.332 3.709c4.848 6.905 13.417 20.41 18.055 35.74.288-.044.562-.11.83-.185C179.506 101.913 168 84 168 84zm-19.623 25.799-12.463 11.277s10.61 16.49 18.695 32.94c2.251 4.58 5.195 12.697 6.705 16.988 4.05-3.105 7.385-6.419 10.096-9.877-.974-3.745-4.457-17.08-7.008-25.51-3.982-13.162-16.025-25.818-16.025-25.818zm-66.473 34.424s8.242 14.582 19.29 24.927c3.713 3.478 8.767 6.805 13.167 9.418 5.962 2.247 12.4 3.55 19.153 3.262-4.608-2.24-12.933-6.496-17.186-10.01-9.305-7.688-23.443-27.597-23.443-27.597h-10.98z" style="fill:#e0f4e0"/><path d="M76 148c-4-12 17.366-33.288 32-44 17.011-12.452 52-24 60-20s-20.512 33.081-36 44c-16.2 11.42-53.172 28.485-56 20z" style="fill:#fdf5d9"/><path d="M81.58 144.245c-3.52-10.559 15.725-28.548 28.6-37.973 14.969-10.956 45.31-21.859 52.348-18.34 7.04 3.52-19.531 27.328-33.159 36.935-14.255 10.049-45.3 26.844-47.79 19.378z" style="fill:#ffb0ac;stroke-width:.87988019"/><path d="M60.168 14.264c-6.686-.057-12.803 1.23-17.156 2.476-1 .522-2.001 1.097-3.002 1.705 6.767-.884 21.987-1.997 32.992 3.81 12.056 6.364 29.24 23.204 35.408 29.434 2.225-4.503 3.086-7.87 3.397-10.779-9.28-6.901-23.96-17.432-33.76-22.512-5.813-3.013-12.05-4.085-17.879-4.134zM24.436 31.855l-.073.086c.14.99 2.31 15.015 14.809 33.047 7.62 10.994 24.508 27.214 31.19 33.483 4.339-3.988 9.062-8.786 14.179-14.532-6.143-4.142-17.214-11.738-23.41-16.873C48.126 56.29 24.74 32.17 24.436 31.856zM12.19 63.405C12.121 91.774 37.158 116 40 116c1.209 0 2.623-.21 4.197-.617C22.79 93.18 14.691 75.744 12.191 63.404z" style="fill:#71a372"/><path d="M95.287 134.995c-2.339-7.015 10.448-18.968 19.003-25.23 9.945-7.28 30.104-14.523 34.78-12.185 4.677 2.339-12.976 18.157-22.031 24.54-9.471 6.676-30.099 17.835-31.752 12.875z" style="fill:#ff837d;stroke-width:.58460462"/><path d="M67.287 11.398c10.19 4.38 32.908 14.87 44.69 26.104.005-.499.023-1.008.023-1.502 0-2.676-19.697-23.251-44.713-24.602zm-32.27 12.64C55.04 37.643 87.09 67.252 93.583 73.297c4.294-5.29 7.61-9.764 10.13-13.575-8.418-7.306-42.883-35.771-68.694-35.686zm-15.728 18.1s-7.914 15.38.594 34.425c5.444 12.185 23.92 29.648 31.088 36.15 2.8-1.424 5.942-3.366 9.437-5.947-2.056-1.841-24.155-21.736-31.92-34.06-7.326-11.63-9.199-30.567-9.199-30.567z" style="fill:#e0f4e0"/><ellipse cx="32.763" cy="169.696" rx="3.487" ry="1.929" style="opacity:1;vector-effect:none;fill:#4a4a4a;fill-opacity:1;stroke-width:.92733908;paint-order:stroke fill markers" transform="rotate(-31.41)"/><ellipse cx="-113.361" cy="190.408" rx="4.158" ry="1.763" style="opacity:1;vector-effect:none;fill:#4a4a4a;fill-opacity:1;stroke-width:.96806508;paint-order:stroke fill markers" transform="matrix(.76818 -.64023 .94789 .3186 0 0)"/><ellipse cx="150.622" cy="-169.658" rx="3.434" ry="1.426" style="opacity:1;vector-effect:none;fill:#4a4a4a;fill-opacity:1;stroke-width:.7911886;paint-order:stroke fill markers" transform="matrix(.9607 -.27761 .27962 -.9601 0 0)"/><ellipse cx="183.321" cy="74.38" rx="1.81" ry="2.737" style="opacity:1;vector-effect:none;fill:#4a4a4a;fill-opacity:1;stroke-width:1.00506997;paint-order:stroke fill markers" transform="matrix(.95599 .29341 -.74034 .67224 0 0)"/><ellipse cx="50.492" cy="156.989" rx="4.41" ry="1.597" style="opacity:1;vector-effect:none;fill:#4a4a4a;fill-opacity:1;stroke-width:1.0621568;paint-order:stroke fill markers" transform="matrix(.86375 -.50391 .62906 .77736 0 0)"/><ellipse cx="63.991" cy="155.761" rx="4.772" ry="1.674" style="opacity:1;vector-effect:none;fill:#4a4a4a;fill-opacity:1;stroke-width:1.13122916;paint-order:stroke fill markers" transform="matrix(.92614 -.37717 .54353 .83939 0 0)"/></svg>
